X:1
T:Rimsky-Korsakov, Fugue VI, op. 17
T:Rimsky-Korsakov, Fugue VI, Op. 17
T:N. Rimsky-Korsakov (1875)
C:N. Rimsky-Korsakov (1875)
%%score { ( 1 2 ) | ( 3 4 ) }
L:1/8
Q:1/4=110
M:4/2
K:G
V:1 treble nm="Piano" snm="Pno."
V:2 treble 
V:3 bass 
V:4 bass 
V:1
 z2 z8 | z8 z2 B2 ^c4 | dB^cd e2 c2 f2 e2 decB | ^Aed^c Bfed c2 g2 f4- | %4
 ff^g^a bb=a=g fedc B2 e2- | e4 ^dB^cd e2 B2 ^c4 | d^cde f2 e2 d2 e2 f4 | gfga b2 a2 gbag f4 | %8
 e2 B2 ^A4- AF^GA B4- | B2 e2 e4 ^dB^cd eFBA | G4 F2 z8 E2 | F4 GEFG A2 F2 B2 A2 | %12
 G2 B2 e2 d2 ^c2 A2 d2 c2 | B2 G2 ^c2 B2 ^A4 B2 z2 | z4 z2 B2 ^c4 dBcd | e2 ^c2 f2 e2 ^d4 =d4- | %16
 d2 ^G2 ^c2 B2 ^A4 =A4- | A2 F2 B2 A2 ^G2 F2 =G2 A2 | B4 z4 z8 | z16 | z16 | %21
 z6 e2 ^d2 =d2 .^c2 .c2 | =c4 B2 =A2 ^G4 =G4- | G2 E2 A2 G2 F4 G2 =F2 | E2 C2 =F2 E2 ^D4 E2 z2 | %25
 z8 z6 E2 | ^D2 =D2 ^C2 C2 =C4 B,2 z2 | e4 ^d2 =d2 ^c2 c2 =c4 | B2 z2 z4 F4 B4- | %29
 B4 ^AF^GA B2 d2 f4- | f2 ^e2 =e4 d2 ^c2 B2 e2 | f4 gefg a2 f2 b2 a2 | ^g4 =g4- g2 ^c2 f2 e2 | %33
 ^d4 =d4- d2 ^G2 ^c2 B2 | ^A4 z2 B2 ^A2 =A2 .^G2 .G2 | =G4 F2 z6 e4 | ^d2 =d2 .^c2 .c2 =c4 B2 z2 | %37
 z16 | z8 z2 B2 ^c4 | dB^cd e2 c2 f2 e2 ^d4 | e2 =d2 ^c4 =c4 B4- | B4 A4- AGFE ^D2 F2 | %42
 ^G^DEF =G2 E2 A2 G2 F4 | E16 |] %44
V:2
 E2 F4 GE FG | A2 F2 B2 A2 GAGF EFGA | B2 A2 G2 AG FF^G^A B2 F2 | E4 F2 B2- B4 ^AF^GA | %4
 B2 e2 d2 B2 A6 G2 | FcAG F4 E2 z2 z2 G2 | F2 B2 ^AF^GA B4 z2 =c2 | B2 e2 ^dB^cd e4 =dcBA | %8
 GEFG F2 ^C2 F2 E2 ^D=A=GF | EBAG F2 c2 B4 z2 B,2 | ^C4 DB,CD E2 C2 F2 E2 | ^DED^C B,2 E2- E4 ^D4 | %12
 E^DEF G2 E2 A2 G2 F2 =D2 | G2 F2 E2 G2- G2 F2 E2 z2 | z8 z2 E2 F4 | GEFG A2 F2 B2 A2 ^G2 F2 | %16
 ^E4- E^C^DE F2 C2 F2 =E2 | ^D2 ^C2 B,B,CD E8 | ^D4 z4 z8 | x16 | z4 B4 ^A2 =A2 .^G2 .G2 | %21
 =G4 FF^G^A BF B2- B=AGF | EF=GA B2 z2 z8 | z8 z8 | z8 B,2 A,2 ^G,2 =G,2 | %25
 .F,2 .F,2 =F,4 E,4- E,^F,G,A, | B,2 =A,2 ^G,4 =G,2 A,2 B,B,^C^D | EFGA B2 F2 E8 | %28
 ^DB,^CD E2 B,2 C4 =DB,CD | E2 ^C2 F2 E2 D2 B2 ^A2 =A2 | .^G2 .G2 =G4 F4 B2 ^A2 | %31
 F2 B4 ^A2 =A4 g2 f2 | e2 B2 e2 d2 ^c2 B2 ^AF^GA | B2 F2 B2 =A2 ^G2 F2 ^E4 | %34
 F z E2 ^D2 =D2 .^C2 .C2 =C4 | B, z B,2 ^C4 DB,CD E2 C2 | F4 E2 z2 E4 ^D2 =D2 | %37
 .^C2 .C2 =C4 B,B,^C^D E2 B2 | ^A2 =A2 .^G2 .G2 =G4 F2 z2 | F4 GEFG A2 F2 B2 A2 | %40
 ^G^DEF =G2 E2 A2 G2 F4 | E2 =D2 ^C8 B,4- | B,4 A,4- A,2 E4 ^D2 | B,16 |] %44
V:3
 z2 z8 | z16 | z8 z6 B,2 | ^C4 DB,CD E2 C2 F2 E2 | DED^C B,2 G,2 A,4 B,4 | C4 B,4 z8 | z16 | z16 | %8
 z8 z2 E,2 F,4 | G,E,F,G, A,2 F,2 B,2 A,2 G,A,G,F, | E,F,G,A, B,4- B,2 ^A,2 =A,4 | %11
 F,2 B,A, G,4 E,4 F,4 | E,2 z2 z4 z8 | z8 z6 B,2 | ^C4 DB,CD E2 ^A,2 B,4- | %15
 B,2 ^A,2 =A,4 F,2 F,2 B,2 A,2 | ^G,4 ^C,4 F,8 | F,4 B,,4 E,8 | F,4 z4 z8 | %19
 z6 E2 ^D2 =D2 .^C2 .C2 | =C4 B,^C^DE FC F2- FEDC | B,^C=DE F2 ^C2 B,2 ^E,2 F,2 ^G,2 | %22
 A,2 E2 ^D^A,B,^C =D2 B,2 E2 D2 | ^C4- CA,B,C D2 =C2 B,G,A,B, | C8 z6 E,2 | %25
 ^D,2 =D,2 ^C,2 C,2 =C,4 B,,4- | B,,2 =C,2 ^C,2 ^D,2 E,4 ^F,4 | z2 E,2 F,4 G,E,F,G, A,2 F,2 | %28
 B,2 A,2 G,4 F,6 ^E,2 | =E,4 D,2 ^C,2 B,,2 F2 ^C4 | B,8 ^A,F,^G,A, F,2 E2 | %31
 ^D2 =D2 .^C2 .C2 =C4 B,4 | B,2 D2 ^C4 ^A,2 B,2 C4 | B,2 A,2 ^G,2 F,2 ^E,2 F,2 G,4 | F,8 z8 | %35
 B,4 ^A,2 =A,2 .^G,2 .G,2 =G,4 | F,2 ^G,2 A,4 z2 E,2 F,4 | G,E,F,G, A,2 F,2 B,2 A,2 ^G,4 | %38
 F,4 ^E,4 =E, z B,2 ^A,2 =A,2 | .^G,2 .G,2 =G,4 F,2 =C2 B,4- | B,4 A,4- A,=G,F,E, ^D,2 F,2 | %41
 ^G,^D,E,F, =G,2 E,2 A,2 G,2 F,4 | E,2 =D,2 ^C,4 =C,2 B,,2 A,,2 B,,A,, | E,16 |] %44
V:4
 z2 z8 | z16 | z16 | z16 | z6 E,2 F,4 G,E,F,G, | A,2 F,2 B,2 A,2 G,A,G,F, E,F,G,A, | B,2 z2 z4 z8 | %7
 z4 z2 B,,2 ^C,4 D,B,,C,D, | E,2 ^C,2 F,2 E,2 D,E,D,C, B,,B,,^C,^D, | E,4 A,,4 G,2 F,2 E,4 | %10
 E,4 D,4 ^C,4 =C,4 | B,,4 E,2 =D,2 C,4 B,,4 | E,2 z2 z4 z8 | z6 E,2 F,4 G,E,F,G, | %14
 A,2 F,2 B,2 A,2 G,4 F,F,E,D, | ^C,4 =C,4 B,,8 | ^C,2 B,,2 A,,2 ^G,,2 F,,2 E,2 ^D,2 C,2 | %17
 B,,2 A,,2 ^G,,2 F,,2 E,,4 =C,4 | B,,4 B,4 ^A,2 =A,2 .^G,2 .G,2 | %19
 =G,4 F,F,^G,A, B,F, B,2- B,A,=G,F, | E,F,G,A, B,A, G,2 F,2 ^B,,2 ^C,2 ^D,2 | %21
 E,2 B,2 ^A,2 F,2 B,,2 ^G,,2 =A,,4- | A,,4 =G,,2 F,,2 E,,4 E,=D,^C,B,, | A,,8 D,=C,B,,A,, G,,4 | %24
 C,2 _B,,2 A,,4 =B,,4 E,4 | z8 z2 A,,2 ^G,,2 =G,,2 | .F,,2 .F,,2 =F,,4 E,,4 ^D,,2 A,,2 | %27
 G,,2 C,2 B,,4- B,,2 ^A,,2 =A,,4 | G,,2 F,,2 E,,2 B,,2 ^A,,2 =A,,2 .^G,,2 .G,,2 | %29
 =G,,4 F,,4 B,,2 B,,2 ^C,4 | D,B,,^C,D, E,2 C,2 F,2 E,2 D,2 C,2 | B,,4 E,8 ^D,B,,^C,D, | %32
 E,4 E,^D,E,^E, F,8 | B,,4 B,,^A,,B,,^B,, ^C,8 | F,,4 B,,12- | B,,16 | B,,16- | B,,16 | B,,16 | %39
 B,,16 | [E,,E,]16 | E,,16 | E,,16 | [E,,^G,,]16 |] %44

